X:25
T:A szegedi halastó
O:Horgos
Q: "Tánclépés" 1/4=120
M:2/4
L:1/4
K:F
d/d/c/c/ | d/d/c | d/A A/ | 
d/d/c/B/ | A/F/G | A/F F/ | 
F/F/G/G/ | A/A/G | A/Ad/ | 
d/d/c/B/ | A/F/G | F/DD/ | 

